public/logos/sanity.svg

<svg xmlns="http://www.w3.org/2000/svg" width="128" height="128" viewBox="0 0 128 128" fill="none">
  <g clip-path="url(#clip0_1_816)">
    <rect width="128" height="128" fill="#F03E2F"/>
    <path d="M39.4229 33.1629C39.4229 44.1614 46.3362 50.7055 60.1767 54.1563L74.8429 57.4971C87.9417 60.453 95.9185 67.7945 95.9185 79.7554C96.0204 84.9662 94.296 90.053 91.0345 94.1634C91.0345 82.23 84.751 75.7822 69.595 71.9052L55.1947 68.6881C43.6633 66.1035 34.7628 60.068 34.7628 47.076C34.7021 42.0589 36.3415 37.1644 39.4229 33.1629" fill="white"/>
    <path d="M82.0221 76.827C88.2777 80.759 91.0206 86.2583 91.0206 94.1497C85.8426 100.666 76.7462 104.323 66.0545 104.323C48.0576 104.323 35.4626 95.6207 32.6637 80.4978H49.9469C52.172 87.4406 58.0636 90.6577 65.9285 90.6577C75.5287 90.6577 81.9102 85.6258 82.0361 76.7995" fill="#F9B1AB"/>
    <path d="M48.4074 49.4682C45.5509 47.8004 43.2074 45.404 41.6255 42.5332C40.0437 39.6624 39.2826 36.4244 39.423 33.1629C44.419 26.7013 53.1096 22.7556 63.7034 22.7556C82.0361 22.7556 92.6439 32.2693 95.2608 45.66H78.6354C76.8022 40.3807 72.212 36.27 63.8433 36.27C54.9008 36.27 48.7993 41.3843 48.4494 49.4682" fill="#F9B1AB"/>
  </g>
  <defs>
    <clipPath id="clip0_1_816">
      <rect width="128" height="128" rx="64" fill="white"/>
    </clipPath>
  </defs>
</svg>

<svg xmlns="http://www.w3.org/2000/svg" viewBox="0 0 128 128">
  <circle cx="64" cy="64" r="64" fill="#F03E2F"/>
  <path fill="#fff" d="M39.42 33.16c0 11 6.92 17.55 20.76 21l14.66 3.34c13.1 2.95 21.08 10.3 21.08 22.26.1 5.2-1.62 10.3-4.89 14.4 0-11.93-6.28-18.38-21.44-22.25l-14.4-3.22c-11.53-2.59-20.43-8.62-20.43-21.61a22.35 22.35 0 0 1 4.66-13.92"/>
  <path fill="#F9B1AB" d="M82.02 76.83c6.26 3.93 9 9.43 9 17.32-5.18 6.52-14.27 10.17-24.97 10.17-18 0-30.59-8.7-33.39-23.82h17.29c2.22 6.94 8.11 10.16 15.98 10.16 9.6 0 15.98-5.03 16.1-13.86M48.4 49.47a18.23 18.23 0 0 1-6.77-6.94 17.82 17.82 0 0 1-2.2-9.37c4.99-6.46 13.68-10.4 24.27-10.4 18.34 0 28.94 9.5 31.56 22.9H78.64c-1.84-5.28-6.43-9.39-14.8-9.39-8.94 0-15.04 5.11-15.4 13.2"/>
</svg>
